icon-themes/sifr_svg/cmd/sc_text.svg

<svg viewBox="0 0 16 16" xmlns="http://www.w3.org/2000/svg"><path d="m2 1c-.554 0-1.02661732.4466398-1 1v2h2v-1h3v10h-2v2h8v-2h-2v-10h3v1h2v-2c0-.554-.446-1-1-1z" fill="#555753"/></svg>

<svg xmlns="http://www.w3.org/2000/svg" viewBox="0 0 16 16">
  <path
     style="fill:#555753"
     d="M 2,1 C 1.446,1 0.97338268,1.4466398 1,2 V 4 H 3 V 3 H 6 V 13 H 4 v 2 h 8 V 13 H 10 V 3 h 3 v 1 h 2 V 2 C 15,1.446 14.554,1 14,1 Z"
     />
</svg>
